X:1320
T:Cowboy Jig, The
O:england
M:6/8
L:1/8
R:Jig
K:A
"A"AEF A2 B|cag aec|"D"Bcd c2 B|"E"c3 BGE|"A"AEF A2 B|cag aec|"D"Bcd c2
B|"A"cAG A3:|
|:"F#m"f3 f3|fag fec|"C#m"efe efe|eaf ecA|"D"d2e f2e|fag aec|"E"Bcd c2B|
"A"cAA A3:||
